!!!COM: Varèse, Edgard [Edgar] (Victor Achille Charles)
!!!OTL: Octandre for Eight Instruments
!!!OMV: Movement 3: Grave - Animé et jubilatoire (Animated and Jubilant)
!!!example: 432
!!!work: Var-4
!!!OMD-full: Grave
!!!OMD: Subitement très vif et nerveux
**kern	**dynam	**kern	**dynam	**kern	**dynam	**kern	**dynam	**kern	**dynam	**kern	**dynam	**kern	**dynam	**kern	**dynam
*grp:A	*grp:A	*grp:A	*grp:A	*grp:B	*grp:B	*grp:A	*grp:A	*grp:A	*grp:A	*grp:A	*grp:A	*grp:A	*grp:A	*grp:A	*grp:A
*part8	*part8	*part7	*part7	*part6	*part6	*part5	*part5	*part4	*part4	*part3	*part3	*part2	*part2	*part1	*part1
*staff8	*	*staff7	*	*staff6	*	*staff5	*	*staff4	*	*staff3	*	*staff2	*	*staff1	*
*I"Contrabass	*	*I"Trombone	*	*I"Trumpet in C	*	*I"Horn in F	*	*I"Bassoon	*	*I"Clarinet in Eb	*	*I"Oboe	*	*I"Flute	*
*I'Cb.	*	*I'Tbn.	*	*I'C Tpt.	*	*I'Hn.	*	*I'Bsn.	*	*I'Eb Cl.	*	*I'Ob.	*	*I'Fl.	*
*ICstr	*	*ICbras	*	*ICbras	*	*ICbras	*	*ICww	*	*ICww	*	*ICww	*	*ICww	*
*Icbass	*	*Itromt	*	*Itromp	*	*Icor	*	*Ifagot	*	*Iclarp	*	*Ioboe	*	*Iflt	*
*clefF4	*	*clefF4	*	*clefG2	*	*clefG2	*	*clefF4	*	*clefG2	*	*clefG2	*	*clefG2	*
*ITrd7c12	*	*	*	*	*	*ITrd4c7	*	*	*	*ITrd-2c-3	*	*	*	*	*
*k[]	*	*k[]	*	*k[]	*	*k[0]	*	*k[]	*	*k[0]	*	*k[]	*	*k[]	*
*M4/4	*	*M4/4	*	*M4/4	*	*M4/4	*	*M4/4	*	*M4/4	*	*M4/4	*	*M4/4	*
=24	=24	=24	=24	=24	=24	=24	=24	=24	=24	=24	=24	=24	=24	=24	=24
!	!	!	!	!LO:TX:a:t=(sourd.)	!	!	!	!	!	!	!	!	!	!	!
8r	.	8r	.	4r	.	8r	.	8r	.	8r	.	8r	.	8r	.
!	!	!	!	!	!	!	!	!	!	!	!	!	!	!LO:TX:t= Subitement très vif et nerveux ([quarter]=132)	!
!	!	!	!	!	!	!	!	!	!	!	!	!	!	!LO:TX:a:B:t=  	!
[8FFF#X^ [8DD	sff	[8BBn^	sff	.	.	[8cn^	sff	[8CC#X^	sff	[8ee-^Z	sff	[8a^	sff	[8g#X^	sff
2.FFF#,] 2.DD]	p <	2.BB,]	p <	[4gg^Z	fff	2.c],	p <	2.CC#,]	p <	2.ee-,]	p <	2.a,]	p <	2.g#,]	p <
.	.	.	.	(8.ggL]	.	.	.	.	.	.	.	.	.	.	.
.	.	.	.	16ffJk)Z	.	.	.	.	.	.	.	.	.	.	.
.	.	.	.	16ee^LLZ	.	.	.	.	.	.	.	.	.	.	.
.	[[	.	[[	16rJ	.	.	[[	.	[[	.	[[	.	[[	.	[[
.	fff	.	ff	[8gg^J	.	.	ff	.	ff	.	fff	.	fff	.	fff
=25	=25	=25	=25	=25	=25	=25	=25	=25	=25	=25	=25	=25	=25	=25	=25
*M5/4	*	*M5/4	*	*M5/4	*	*M5/4	*	*M5/4	*	*M5/4	*	*M5/4	*	*M5/4	*
8r	.	8r	.	2.gg_	.	8r	.	8r	fff	8r	.	8r	.	8r	.
8FFF#X^ 8DD	fff	8BB^	ff	.	.	8c^	ff	8CC#X^	.	8ee-^	fff	8a^	fff	8g#X^	fff
8r	.	8r	.	.	.	8r	.	8r	.	8r	.	8r	.	8r	.
16FFF#^LL 16DD	.	16BB^LL	.	.	.	16c^LL	.	16CC#^LL	.	16ee-^LL	.	16a^LL	.	16g#^LL	.
16FFF#^JJ 16DD	.	16BB^JJ	.	.	.	16c^JJ	.	16CC#^JJ	.	16ee-^JJ	.	16a^JJ	.	16g#^JJ	.
4r	.	4r	.	.	.	4r	.	4r	.	4r	.	4r	.	4r	.
12FFF#~L 12DD	.	12BB~L	.	2gg_	.	12c~L	.	12CC#~L	.	12ee-~L	.	12a~L	.	12g#~L	.
12FFF#~ 12DD	.	12BB~	.	.	.	12c~	.	12CC#~	.	12ee-~	.	12a~	.	12g#~	.
[12FFF#^J [12DD	.	[12BB^J	.	.	.	[12c^J	.	[12CC#^J	.	[12ee-^J	.	[12a^J	.	[12g#^J	.
12FFF#L] 12DD]	.	12BBL]	.	.	.	12cL]	.	12CC#L]	.	12ee-L]	.	12aL]	.	12g#L]	.
12FFF#^J 12DD	.	12BB^J	.	.	.	12c^J	.	12CC#^J	.	12ee-^J	.	12a^J	.	12g#^J	.
12r	.	12r	.	.	.	12r	.	12r	.	12r	.	12r	.	12r	.
=26	=26	=26	=26	=26	=26	=26	=26	=26	=26	=26	=26	=26	=26	=26	=26
*M	*	*M	*	*M	*	*M	*	*M	*	*M	*	*M	*	*M	*
!LO:TX:a:B:t=[*M = 2½]	!	!LO:TX:a:B:t=[*M = 2½]	!	!LO:TX:a:B:t=[*M = 2½]	!	!LO:TX:a:B:t=[*M = 2½]	!	!LO:TX:a:B:t=[*M = 2½]	!	!LO:TX:a:B:t=[*M = 2½]	!	!LO:TX:a:B:t=[*M = 2½]	!	!LO:TX:a:B:t=[*M = 2½]	!
8r	.	8r	.	(8.ggL]	.	8r	.	8r	.	8r	.	8r	.	8r	.
*tremolo	*	*	*	*	*	*	*	*	*	*	*	*	*	*	*
32FFF#X 32DDLLL	p <	[4.BB	pp <	.	.	[4.c	p <	[4.CC#X^	sf p <	[4.ee-^	sf p <	[4.a^	sf p <	[4.g#X	sf p <
32FFF#X 32DD	.	.	.	.	.	.	.	.	.	.	.	.	.	.	.
32FFF#X 32DD	.	.	.	16ffJk	.	.	.	.	.	.	.	.	.	.	.
32FFF#X 32DD	.	.	.	.	.	.	.	.	.	.	.	.	.	.	.
32FFF#X 32DD	.	.	.	8eeL)	.	.	.	.	.	.	.	.	.	.	.
32FFF#X 32DD	.	.	.	.	.	.	.	.	.	.	.	.	.	.	.
32FFF#X 32DD	.	.	.	.	.	.	.	.	.	.	.	.	.	.	.
32FFF#X 32DD	.	.	.	.	.	.	.	.	.	.	.	.	.	.	.
32FFF#X 32DD	.	.	.	8ee'J	.	.	.	.	.	.	.	.	.	.	.
32FFF#X 32DD	.	.	.	.	.	.	.	.	.	.	.	.	.	.	.
32FFF#X 32DD	.	.	.	.	.	.	.	.	.	.	.	.	.	.	.
32FFF#X 32DDJJJ	.	.	.	.	.	.	.	.	.	.	.	.	.	.	.
*Xtremolo	*	*	*	*	*	*	*	*	*	*	*	*	*	*	*
8FFF#^ 8DD	fff [	8BB]	ff [	[8ee^	.	8c]	ff [	8CC#]	fff [	8ee-]	fff [	8a]	fff [	8g#]	fff [
=27	=27	=27	=27	=27	=27	=27	=27	=27	=27	=27	=27	=27	=27	=27	=27
*M4/4	*	*M4/4	*	*M4/4	*	*M4/4	*	*M4/4	*	*M4/4	*	*M4/4	*	*M4/4	*
8r	.	8r	.	1ee]	.	8r	.	8r	.	8r	.	8r	.	8r	.
[8FFF#X^ [8DD	.	[8BB^	ff	.	.	[8c^	ff	[8CC#X^	fff	[8ee-^	fff	[8a^	fff	[8g#X^	fff
4FFF#] 4DD]	.	4BB]	.	.	.	4c]	.	4CC#]	.	4ee-]	.	4a]	.	4g#]	.
8FFF# 8DD	.	8BB	.	.	.	8c	.	8CC#	.	8ee-	.	8a	.	8g#	.
4FFF#^ 4DD	.	4BB^	.	.	.	4c^	.	4CC#^	.	4ee-^	.	4a^	.	4g#^	.
[8FFF#^ [8DD	.	[8BB^	.	.	.	[8c^	.	[8CC#^	.	[8ee-^	.	[8a^	.	[8g#^	.
=28	=28	=28	=28	=28	=28	=28	=28	=28	=28	=28	=28	=28	=28	=28	=28
*M3/4	*	*M3/4	*	*M3/4	*	*M3/4	*	*M3/4	*	*M3/4	*	*M3/4	*	*M3/4	*
!	!	!	!	!	!	!	!	!	!	!	!	!	!	!	!
12FFF#XL] 12DD]	.	12BBL]	.	4ggZ	.	12cL]	.	12CC#XL]	.	12ee-XL]	.	12aL]	.	12g#XL]	.
12FFF#^ 12DD	.	12BB^	.	.	.	12c^	.	12CC#^	.	12ee-^	.	12a^	.	12g#^	.
12FFF#^J 12DD	.	12BB^J	.	.	.	12c^J	.	12CC#^J	.	12ee-^J	.	12a^J	.	12g#^J	.
8r	.	8r	.	(32ffLLZ	.	8r	.	8r	.	8r	.	8r	.	8r	.
.	.	.	.	32gg	.	.	.	.	.	.	.	.	.	.	.
.	.	.	.	[8.ffJJ^	.	.	.	.	.	.	.	.	.	.	.
8FFF#^ 8DD	.	8BB^	.	.	.	8c^	.	8CC#^	.	8ee-^	.	8a^	.	8g#^	.
8r	.	8r	.	8ffL])	.	8r	.	8r	.	8r	.	8r	.	8r	.
16FFF#^LL 16DD	.	16BB^LL	.	8ee^,JZ	.	16c^LL	.	16CC#^LL	.	16ee-^LL	.	16a^LL	.	16g#^LL	.
16FFF#^JJ 16DD	.	16BB^JJ	.	.	.	16c^JJ	.	16CC#^JJ	.	16ee-^JJ	.	16a^JJ	.	16g#^JJ	.
=29	=29	=29	=29	=29	=29	=29	=29	=29	=29	=29	=29	=29	=29	=29	=29
*M4/4	*	*M4/4	*	*M4/4	*	*M4/4	*	*M4/4	*	*M4/4	*	*M4/4	*	*M4/4	*
8r	.	8r	.	16ee^KL	.	8r	.	8r	.	8r	.	8r	.	8r	.
.	.	.	.	[8.gg^J	.	.	.	.	.	.	.	.	.	.	.
[8FFF#X^ [8DD	.	[8BB^	.	.	.	[8c^	.	[8CC#X^	.	[8ee-^	.	[8a^	.	[8g#X^	.
4FFF#] 4DD]	.	4BB]	.	2.gg_	.	4c]	.	4CC#]	.	4ee-]	.	4a]	.	4g#]	.
8FFF# 8DD	.	8BB	.	.	.	8c	.	8CC#	.	8ee-	.	8a	.	8g#	.
4FFF#^ 4DD	.	4BB^	.	.	.	4c^	.	4CC#^	.	4ee-^	.	4a^	.	4g#^	.
[8FFF#^ [8DD	.	[8BB^	.	.	.	[8c^	.	[8CC#^	.	[8ee-^	.	[8a^	.	[8g#^	.
=30	=30	=30	=30	=30	=30	=30	=30	=30	=30	=30	=30	=30	=30	=30	=30
12FFF#XL] 12DD]	.	12BBL]	.	4gg]	.	12cL]	.	12CC#XL]	.	12ee-XL]	.	12aL]	.	12g#XL]	.
12FFF#^ 12DD	.	12BB^	.	.	.	12c^	.	12CC#^	.	12ee-^	.	12a^	.	12g#^	.
12FFF#^J 12DD	.	12BB^J	.	.	.	12c^J	.	12CC#^J	.	12ee-^J	.	12a^J	.	12g#^J	.
8r	.	8r	.	(16ffKL	.	8r	.	8r	.	8r	.	8r	.	8r	.
.	.	.	.	[8.ee^J)	.	.	.	.	.	.	.	.	.	.	.
8FFF#^ 8DD	.	8BB^	.	.	.	8c^	.	8CC#^	.	8ee-^	.	8a^	.	8g#^	.
8r	.	8r	.	4ee]	.	8r	.	8r	.	8r	.	8r	.	8r	.
16FFF#^LL 16DD	.	16BB^LL	.	.	.	16c^LL	.	16CC#^LL	.	16ee-^LL	.	16a^LL	.	16g#^LL	.
16FFF#^JJ 16DD	.	16BB^JJ	.	.	.	16c^JJ	.	16CC#^JJ	.	16ee-^JJ	.	16a^JJ	.	16g#^JJ	.
4r	.	4r	.	[4ee^	.	4r	.	4r	.	4r	.	4r	.	4r	.
=31	=31	=31	=31	=31	=31	=31	=31	=31	=31	=31	=31	=31	=31	=31	=31
*M3/4	*	*M3/4	*	*M3/4	*	*M3/4	*	*M3/4	*	*M3/4	*	*M3/4	*	*M3/4	*
8r	.	8r	.	2.ee_	.	8r	.	8r	.	8r	.	8r	.	8r	.
8FFF#X^ 8DD	.	8BB^	.	.	>	8c^	.	8CC#X^	.	8ee-^	.	8a^	.	8g#X^	.
4r	.	4r	.	.	.	4r^	.	4r^	.	4r^	.	4r^	.	4r^	.
8FFF#^ 8DD	.	8BB^	.	.	.	8c^	.	8CC#^	.	8ee-^	.	8a^	.	8g#^	.
8r	.	8r	.	.	.	8r	.	8r	.	8r	.	8r	.	8r	.
=32	=32	=32	=32	=32	=32	=32	=32	=32	=32	=32	=32	=32	=32	=32	=32
*M4/4	*	*M4/4	*	*M4/4	*	*M4/4	*	*M4/4	*	*M4/4	*	*M4/4	*	*M4/4	*
4r	.	4r	.	1ee]	]]	4r	.	4r	.	4r	.	4r	.	4r	.
16FFF#X^LL 16DD	fff	16BB^LL	ff	.	mp <	16c^LL	ff	16CC#X^LL	fff	16ee-^LL	fff	16a^LL	fff	16g#X^LL	fff
16FFF#^JJ 16DD	.	16BB^JJ	.	.	.	16c^JJ	.	16CC#^JJ	.	16ee-^JJ	.	16a^JJ	.	16g#^JJ	.
8r	.	8r	.	.	.	8r	.	8r	.	8r	.	8r	.	8r	.
2r	.	2r	.	.	[[	2r	.	2r	.	2r	.	2r	.	2r	.
=	=	=	=	=	=	=	=	=	=	=	=	=	=	=	=
*-	*-	*-	*-	*-	*-	*-	*-	*-	*-	*-	*-	*-	*-	*-	*-
!!!system-decoration: [(s1,s2,s3,s4,s5,s6,s7,s8)]
!!!RDF**kern: i = editorial accidental
!!!RDF**kern: j = editorial accidental, bracket
!!!RDF**kern: Z = editorial accidental, parentheses
!!!CDT: 1883/12/22-1965/11/06
!!!CBL: Paris, France
!!!CDL: New York, United States
!!!CNT: French, American
!!!AGN: Instrumental; Chamber
!!!MCN: Schmitz, Robert
!!!MDT: 1924/01/13
!!!MGN: unknown
!!!MLC: New York, New York, United States of America
!!!MPD: 1924
!!!MPN:
!!!ODT: 1923
!!!PDT: 1923
!!!excerpt-start-measure: 24
!!!excerpt-end-measure: 32
!!!excerpt-start-time: 1:01
!!!excerpt-end-time: 1:16
!!!excerpt-duration-sec: 15
!!!excerpt-time-signature: 4/4
!!!excerpt-tempo-beat: quarter
!!!excerpt-tempo-rate: 132
!!!excerpt-meter-type: quadruple
!!!excerpt-beat-group: G4
!!!excerpt-beat-subgroup: G2
!!!experiment: 0
!!!EEV: 2020/07/28
!!!ONB: Converted from MusicXML on 2020/07/28
